usr/share/icons/Mint-X/status/scalable/printer-warning-symbolic.svg

<?xml version="1.0" encoding="UTF-8" standalone="no"?>
<svg xmlns="http://www.w3.org/2000/svg" height="16" width="16" version="1.1">
 <path d="m3.5 0c-0.831 0-1.5 0.669-1.5 1.5v4.5h-0.5c-0.831 0-1.5 0.669-1.5 1.5v4c0 0.831 0.669 1.5 1.5 1.5h0.5v1.5c0 0.831 0.669 1.5 1.5 1.5h7.5312v-2h-6.531c-0.277 0-0.5-0.223-0.5-0.5v-1.5h7.0312v-2.3125c-0.025-0.0598-0.031-0.1185-0.031-0.1875s0.0059-0.12769 0.03125-0.1875v-0.3125c-0.0061-0.44988 0.34029-0.87941 0.78125-0.96875 0.7151-0.00374 1.4598 0 2.1875 0 0.50645 0.00308 0.96582 0.46235 0.969 0.9688v3.9062c0.601-0.195 1.031-0.738 1.031-1.406v-4c0-0.831-0.669-1.5-1.5-1.5h-0.5v-4.5c0-0.831-0.669-1.5-1.5-1.5-2.9997-0.000062282-6 0.00080093-9 0zm1 2h7c0.277 0 0.5 0.223 0.5 0.5v4.5h-8v-4.5c0-0.277 0.223-0.5 0.5-0.5zm0.5 1v1h6.0312v-1h-6.031zm0 2v1h4v-1z" fill="#bebebe"/>
 <path d="m12 9v4h2v-4zm0 5v2h2v-2z" fill="#ff9000"/>
</svg>

<?xml version="1.0" encoding="UTF-8" standalone="no"?>
<!-- Created with Inkscape (http://www.inkscape.org/) -->

<svg
   xmlns:dc="http://purl.org/dc/elements/1.1/"
   xmlns:cc="http://creativecommons.org/ns#"
   xmlns:rdf="http://www.w3.org/1999/02/22-rdf-syntax-ns#"
   xmlns:svg="http://www.w3.org/2000/svg"
   xmlns="http://www.w3.org/2000/svg"
   xmlns:sodipodi="http://sodipodi.sourceforge.net/DTD/sodipodi-0.dtd"
   xmlns:inkscape="http://www.inkscape.org/namespaces/inkscape"
   width="16"
   height="16"
   id="svg2"
   sodipodi:version="0.32"
   inkscape:version="0.48.1 r9760"
   version="1.0"
   sodipodi:docname="printer-warning-symbolic.svg"
   inkscape:output_extension="org.inkscape.output.svg.inkscape"
   inkscape:export-filename="/home/matt/.icons/Sirocco/scalable/mimetypes/text-plain.png"
   inkscape:export-xdpi="90"
   inkscape:export-ydpi="90"
   sodipodi:modified="true"
   style="display:inline">
  <sodipodi:namedview
     id="base"
     pagecolor="#ffffff"
     bordercolor="#666666"
     borderopacity="1.0"
     inkscape:pageopacity="0.0"
     inkscape:pageshadow="2"
     inkscape:zoom="16.540628"
     inkscape:cx="-19.902503"
     inkscape:cy="2.3079226"
     inkscape:document-units="px"
     inkscape:current-layer="layer1"
     width="128px"
     height="128px"
     inkscape:showpageshadow="false"
     inkscape:window-width="1920"
     inkscape:window-height="1028"
     inkscape:window-x="0"
     inkscape:window-y="25"
     showguides="true"
     inkscape:guide-bbox="true"
     showgrid="true"
     inkscape:window-maximized="1">
    <sodipodi:guide
       id="guide2226"
       position="32.637397,117.99844"
       orientation="horizontal" />
    <sodipodi:guide
       id="guide2230"
       position="110,57.402344"
       orientation="vertical" />
    <sodipodi:guide
       id="guide2232"
       position="33.760911"
       orientation="horizontal" />
    <sodipodi:guide
       id="guide2231"
       position="46.774696"
       orientation="horizontal" />
    <inkscape:grid
       enabled="true"
       visible="true"
       id="grid3231"
       type="xygrid" />
    <sodipodi:guide
       orientation="1,0"
       position="100,67.625"
       id="guide2713" />
  </sodipodi:namedview>
  <defs
     id="defs4" />
  <metadata
     id="metadata7">
    <rdf:RDF>
      <cc:Work
         rdf:about="">
        <dc:format>image/svg+xml</dc:format>
        <dc:type
           rdf:resource="http://purl.org/dc/dcmitype/StillImage" />
        <dc:title />
      </cc:Work>
    </rdf:RDF>
  </metadata>
  <g
     style="display:inline"
     inkscape:label="Calque 1"
     id="layer1"
     inkscape:groupmode="layer">
    <path
       style="fill:#bebebe;fill-opacity:1;stroke:none;display:inline"
       d="M -15.5,1 C -16.331,1 -17,1.669 -17,2.5 l 0,1.0625 0,3.46875 -0.53125,0 c -0.831,0 -1.5,0.669 -1.5,1.5 l 0,3.03125 c 0,0.831 0.669,1.5 1.5,1.5 l 0.53125,0 0,0.125 0,0.3125 c 0,0.831 0.669,1.5 1.5,1.5 l 7,0 c 0.831,0 1.5,-0.669 1.5,-1.5 l 0,-0.3125 0,-0.125 0.53125,0 c 0.831,0 1.5,-0.669 1.5,-1.5 l 0,-3.0625 c 0,-0.8310001 -0.669,-1.5 -1.5,-1.5 L -7,7 -7,5.6875 -7,2.5 C -7,1.669 -7.669,1 -8.5,1 l -7,0 z m 1,2 5,0 C -9.223,3 -9,3.223 -9,3.5 l 0,4.5 -6,0 0,-4.5 C -15,3.223 -14.777,3 -14.5,3 z m 0.5,1 0,1 4.010835,0 0,-1 L -14,4 z m 0,2 0,1 3,0 0,-1 -3,0 z m 7.5,3 c 0.276,-2e-7 0.5,0.224 0.5,0.5 C -6,9.7759998 -6.224,10 -6.5,10 -6.776,9.9999998 -7,9.776 -7,9.5 -7,9.2239998 -6.776,9 -6.5,9 z m -8.5,3 6,0 0,0.5 c 0,0.277 -0.223,0.5 -0.5,0.5 l -5,0 c -0.277,0 -0.5,-0.223 -0.5,-0.5 l 0,-0.5 z"
       id="Symbol"
       sodipodi:nodetypes="cccccccccccccccccccccccccccccccccccccccccccssscccccccc"
       inkscape:connector-curvature="0" />
    <path
       style="fill:#bebebe;fill-opacity:1;stroke:none;display:inline"
       d="M 3.5 0 C 2.669 0 2 0.669 2 1.5 L 2 6 L 1.5 6 C 0.669 6 0 6.669 0 7.5 L 0 11.5 C 0 12.331 0.669 13 1.5 13 L 2 13 L 2 14.5 C 2 15.331 2.669 16 3.5 16 L 11.03125 16 L 11.03125 14 L 4.5 14 C 4.223 14 4 13.777 4 13.5 L 4 13 L 4 12 L 11.03125 12 L 11.03125 9.6875 C 11.005937 9.6276875 11 9.569 11 9.5 C 11 9.431 11.005937 9.3723125 11.03125 9.3125 L 11.03125 9 A 0.97494051 0.97494051 0 0 1 11.8125 8.03125 A 0.97494051 0.97494051 0 0 1 12 8.03125 L 14 8.03125 A 0.97494051 0.97494051 0 0 1 14.96875 9 L 14.96875 12.90625 C 15.570352 12.711174 16 12.168262 16 11.5 L 16 7.5 C 16 6.669001 15.331 6 14.5 6 L 14.03125 6 L 14 6 L 14 1.5 C 14 0.669 13.331 0 12.5 0 L 3.5 0 z M 4.5 2 L 11.5 2 C 11.777 2 12 2.223 12 2.5 L 12 6 L 12 7 L 4 7 L 4 6 L 4 2.5 C 4 2.223 4.223 2 4.5 2 z M 5 3 L 5 4 L 11.03125 4 L 11.03125 3 L 5 3 z M 5 5 L 5 6 L 9 6 L 9 5 L 5 5 z "
       id="Symbol-4" />
    <path
       inkscape:connector-curvature="0"
       style="color:#000000;fill:#ff9000;fill-opacity:1;fill-rule:nonzero;stroke:none;stroke-width:1;marker:none;visibility:visible;display:inline;overflow:visible;enable-background:accumulate"
       d="M 12,9.0000001 12,13 14,13 14,9.0000001 z M 12,14 l 0,2 2,0 0,-2 z"
       id="rect2988"
       class="warning"
       sodipodi:nodetypes="cccccccccc" />
    <path
       sodipodi:nodetypes="sscsssscsssscssssccssssssccccssccccccccccsssssssssscccsssscc"
       id="path3788"
       d="M 3.5,-20 C 2.669,-20 2,-19.331 2,-18.5 l 0,4.5 -0.5,0 C 0.669,-14 0,-13.331 0,-12.5 l 0,4 C 0,-7.669 0.669,-7 1.5,-7 L 2,-7 2,-5.5 C 2,-4.669 2.669,-4 3.5,-4 l 9,0 c 0.831,0 1.5,-0.669 1.5,-1.5 l 0,-1.5 0.5,0 c 0.831,0 1.5,-0.669 1.5,-1.5 l 0,-4 c 0,-0.830999 -0.669,-1.5 -1.5,-1.5 l -0.46875,0 -0.03125,0 0,-4.5 c 0,-0.831 -0.669,-1.5 -1.5,-1.5 z m 1,2 7,0 c 0.277,0 0.5,0.223 0.5,0.5 l 0,3.5 0,1 -8,0 0,-1 0,-3.5 C 4,-17.777 4.223,-18 4.5,-18 z m 0.5,1 0,1 6.03125,0 0,-1 z m 0,2 0,1 4,0 0,-1 z m 6.5,4 c 0.276,0 0.5,0.224 0.5,0.5 10e-7,0.276 -0.224,0.5 -0.5,0.5 -0.276,0 -0.5,-0.224 -0.5,-0.5 0,-0.276 0.224,-0.5 0.5,-0.5 z m 2,0 c 0.276001,0 0.5,0.224 0.5,0.5 10e-7,0.276 -0.224,0.5 -0.5,0.5 -0.275999,0 -0.5,-0.224 -0.5,-0.5 10e-7,-0.276 0.224,-0.5 0.5,-0.5 z m -9.5,3 8,0 0,1 0,0.5 c 0,0.277 -0.223,0.5 -0.5,0.5 l -7,0 C 4.223,-6 4,-6.223 4,-6.5 L 4,-7 z"
       style="fill:#bebebe;fill-opacity:1;stroke:none;display:inline"
       inkscape:connector-curvature="0" />
  </g>
</svg>
